icons/filled/escalator-down.svg

<svg xmlns="http://www.w3.org/2000/svg" width="24" height="24" viewBox="0 0 24 24" fill="currentColor"><path d="M7.233 6a3 3 0 0 1 2.006 .77l9.145 8.23h1.116a3.5 3.5 0 0 1 3.495 3.308l.005 .192a3.5 3.5 0 0 1 -3.5 3.5h-2.733a3 3 0 0 1 -2.006 -.77l-9.144 -8.23h-1.117a3.5 3.5 0 0 1 -3.495 -3.308l-.005 -.192a3.5 3.5 0 0 1 3.5 -3.5z"/><path d="M18 2a1 1 0 0 1 1 1v4.584l1.293 -1.291a1 1 0 0 1 1.32 -.083l.094 .083a1 1 0 0 1 0 1.414l-3 3a1 1 0 0 1 -.112 .097l-.11 .071l-.114 .054l-.105 .035l-.149 .03l-.117 .006l-.075 -.003l-.126 -.017l-.111 -.03l-.111 -.044l-.098 -.052l-.096 -.067l-.09 -.08l-3 -3a1 1 0 1 1 1.414 -1.414l1.293 1.293v-4.586a1 1 0 0 1 1 -1"/></svg>

<svg xmlns="http://www.w3.org/2000/svg" width="24" height="24" fill="currentColor"><path d="M7.233 6a3 3 0 0 1 2.006.77L18.384 15H19.5a3.5 3.5 0 0 1 3.495 3.308L23 18.5a3.5 3.5 0 0 1-3.5 3.5h-2.733a3 3 0 0 1-2.006-.77L5.617 13H4.5a3.5 3.5 0 0 1-3.495-3.308L1 9.5A3.5 3.5 0 0 1 4.5 6zM18 2a1 1 0 0 1 1 1v4.584l1.293-1.291a1 1 0 0 1 1.32-.083l.094.083a1 1 0 0 1 0 1.414l-3 3a1 1 0 0 1-.112.097l-.11.071-.114.054-.105.035-.149.03L18 11l-.075-.003-.126-.017-.111-.03-.111-.044-.098-.052-.096-.067-.09-.08-3-3a1 1 0 1 1 1.414-1.414L17 7.586V3a1 1 0 0 1 1-1"/></svg>
